!!!COM: Felix Mendelssohn
!!!OMV: Trinklied
!!!OTL: Vier Lieder
!!!OMD: Allegro vivace
!!!OTL: Vier Lieder
!!!system-decoration: (s1,s2,s3,s4)
**kern	**text	**text	**dynam	**kern	**text	**text	**kern	**text	**text	**kern	**text	**text
*part4	*part4	*part4	*part4	*part3	*part3	*part3	*part2	*part2	*part2	*part1	*part1	*part1
*staff4	*staff4	*staff4	*	*staff3	*staff3	*staff3	*staff2	*staff2	*staff2	*staff1	*staff1	*staff1
*clefF4	*	*	*	*clefF4	*	*	*clefGv2	*	*	*clefGv2	*	*
*k[f#c#g#d#]	*	*	*	*k[f#c#g#d#]	*	*	*k[f#c#g#d#]	*	*	*k[f#c#g#d#]	*	*
*M3/4	*	*	*	*M3/4	*	*	*M3/4	*	*	*M3/4	*	*
8E	.	.	f	8E	1. So	2. Denn	8G#y	.	.	8G#y	1. So	2. Denn
8E	.	.	.	8F#y	lang	mei-	8A	.	.	8A	lang	mei-
8E	.	.	.	8G#y	man	-ne	8B	.	.	8B	man	-ne
=1	=1	=1	=1	=1	=1	=1	=1	=1	=1	=1	=1	=1
8.E	.	.	.	8.A	nüch-	Mei-	8.c#y	.	.	8.c#y	nüch-	Mei-
16E	.	.	.	16G#y	-tern	-nung	16B	.	.	16B	-tern	-nung
8E	.	.	.	8F#y	ist	ist	8A	.	.	8A	ist	ist
8E	.	.	.	8G#y	ge-	nicht	8B	.	.	8B	ge-	nicht
8E	.	.	.	8A	-fällt	ü-	8c#y	.	.	8c#y	-fällt	ü-
8E	.	.	.	8F#y	das	-ber-	8B	.	.	8d#y	das	-ber-
=2	=2	=2	=2	=2	=2	=2	=2	=2	=2	=2	=2	=2
4E^	.	.	.	4G#y^	Schlech-	-trie-	4B^	.	.	4e^	Schlech-	-trie-
8E	.	.	.	8G#y	-te,	-ben:	8B	.	.	8B	-te,	-ben:
8E	.	.	.	8E	wie	wenn	8B	.	.	8B	wie	wenn
8E	.	.	.	8E	man	man	8B	.	.	8c#y	man	man
8E	.	.	.	8F#y	ge-	nicht	8B	.	.	8d#y	ge-	nicht
=3	=3	=3	=3	=3	=3	=3	=3	=3	=3	=3	=3	=3
8.E	.	.	.	8.G#y	-trun-	trin-	8.B	.	.	8.e	-trun-	trin-
16E	.	.	.	16F#y	-ken	-ken	16B	.	.	16d#y	-ken	-ken
8E	.	.	.	8E	hat	kann	8B	.	.	8c#y	hat	kann
8E	.	.	.	8F#y	weiss	soll	8B	.	.	8d#y	weiss	soll
8E	.	.	.	8G#y	man	man	8B	.	.	8e	man	man
8C#y	.	.	.	8A#	das	nicht	8e	.	.	8f#y	das	nicht
=4	=4	=4	=4	=4	=4	=4	=4	=4	=4	=4	=4	=4
4BB	.	.	.	4B	Rech-	lie-	4e	.	.	4g#y	Rech-	lie-
4BB'	.	.	.	8BB	-te,	-ben,	4d#y	.	.	4f#y	-te,	-ben,
.	.	.	.	8B	wie	wenn	.	.	.	.	.	.
4r	.	.	.	8B	man	man	4r	.	.	4r	.	.
.	.	.	.	8B	ge	nicht	.	.	.	.	.	.
=5	=5	=5	=5	=5	=5	=5	=5	=5	=5	=5	=5	=5
8.G#yL	weiss	soll	<	8.B	trun-	trin-	8.eL	.	.	8.eL	weiss	soll
16F#yJ	.	.	[	16A#	-ken	-ken	16d#yJ	.	.	16d#yJ	.	.
4E	man	man	.	8B	hat,	kann,	4c#y	.	.	4c#y	man	man
.	.	.	.	8B	wie	wenn	.	.	.	.	.	.
8r	.	.	.	8B	man	man	8r	.	.	8r	.	.
8E	das	nicht	.	8B	ge-	nicht	8c#y	.	.	8c#y	das	nicht
=6	=6	=6	=6	=6	=6	=6	=6	=6	=6	=6	=6	=6
8.G#yL	Rech-	lie-	<	8.B	-trun-	trin-	8.eL	.	.	8.eL	Rech-	lie-
16F#yJ	.	.	[	16A#	-ken	-ken	16d#yJ	.	.	16d#yJ	.	.
4E	-te,	-ben,	.	8B	hat	kann	4c#y	.	.	4c#y	-te,	-ben,
.	.	.	.	8B	weiss	soll	.	.	.	.	.	.
4r	.	.	.	8B	man	man	4r	.	.	4r	.	.
.	.	.	.	8B	das	nicht	.	.	.	.	.	.
=7	=7	=7	=7	=7	=7	=7	=7	=7	=7	=7	=7	=7
4G#y	wie	wenn	<	[2.B	Rech-	lie-	4e	.	.	4e	wie	wenn
4F#y	man	man	.	.	.	.	4d#y	.	.	4d#y	man	man
4E	ge-	nicht	.	.	.	.	4c#y	.	.	4c#y	ge-	nicht
=8	=8	=8	=8	=8	=8	=8	=8	=8	=8	=8	=8	=8
4.D#y	-trun-	trin-	[	2B]	.	.	4.d#y	.	.	4.d#y	-trun-	trin-
8D#y	-ken	-ken	.	.	.	.	8d#y	.	.	8d#y	-ken	-ken
4D#y	hat	kann,	.	4A#	-te,	-ben,	4c#y	.	.	4d#y	hat	kann,
=9	=9	=9	=9	=9	=9	=9	=9	=9	=9	=9	=9	=9
4G#y	weiss	soll	.	2.r	.	.	8.BL	.	.	8.d#yL	weiss	soll
.	.	.	.	.	.	.	16A#J	.	.	16c#yJ	.	.
4G#y	man	man	.	.	.	.	8G#yL	.	.	8BL	man	man
.	.	.	.	.	.	.	8A#yJ	.	.	8c#yJ	.	.
4G#y	das	nicht	.	.	.	.	8BL	.	.	8d#yL	das	nicht
.	.	.	.	.	.	.	8c#yJ	.	.	8eJ	.	.
=10	=10	=10	=10	=10	=10	=10	=10	=10	=10	=10	=10	=10
2.F#y	Rech-	lie-	<	4B	weiss	soll	4d#y	Rech-	lie-	[2.f#y	Rech-	lie-
.	.	.	.	8A#	man,	man,	8c#y	-te,	-ben,	.	.	.
.	.	.	.	8A#y	weiss	soll	8c#y	weiss	soll	.	.	.
.	.	.	.	8B	man	man	8d#y	man	man	.	.	.
.	.	.	.	8c#y	das	nicht	8e	das	nicht	.	.	.
=11	=11	=11	=11	=11	=11	=11	=11	=11	=11	=11	=11	=11
4BB	-te.	-ben.	[	4B	Re-	lie-	8.d#yL	Rech-	lie-	8.f#yL]	.	.
.	.	.	.	.	.	.	16c#yJ	.	.	16eJ	.	.
8r	.	.	.	4BB	-chte.	-ben.	4B	-te.	-ben.	4d#y	-te.	-ben.
8c#y	Nur	Doch	.	.	.	.	.	.	.	.	.	.
8F#y	ist	sollt	.	4r	.	.	4r	.	.	4r	.	.
8G#y	das	ihr	.	.	.	.	.	.	.	.	.	.
=12	=12	=12	=12	=12	=12	=12	=12	=12	=12	=12	=12	=12
8.A	Ü-	Trin-	.	2.r	.	.	2.r	.	.	4r	.	.
16G#y	-ber-	-ker	.	.	.	.	.	.	.	.	.	.
8F#y	-maß	euch	.	.	.	.	.	.	.	8r	.	.
8C#y	auch	nicht	.	.	.	.	.	.	.	8c#y	Nur	Doch
8F#y	gleich	bes-	.	.	.	.	.	.	.	8F#y	ist	sollt
8E#	zu	-ser	.	.	.	.	.	.	.	8G#y	das	ihr
=13	=13	=13	=13	=13	=13	=13	=13	=13	=13	=13	=13	=13
4F#y	Han-	dün-	.	4r	.	.	4r	.	.	8.A	Ü-	Trin-
.	.	.	.	.	.	.	.	.	.	16G#y	-ber-	-ker
4C#y	-den;	-ken,	.	8r	.	.	8r	.	.	8F#y	-maß	euch
.	.	.	.	8c#y	.	.	8c#y	Nur	Doch	8c#y	auch	nicht
8r	.	.	.	8F#y	.	.	8F#y	ist	sollt	8f#y	gleich	bes-
8C#y	das	nicht	.	8G#y	.	.	8G#y	das	ihr	8e#	zu	-ser
=14	=14	=14	=14	=14	=14	=14	=14	=14	=14	=14	=14	=14
8.F#y	Ü-	bes-	.	8.A	.	.	8.A	Ü-	Trin-	4f#y	Han-	dün-
16G#y	-ber-	.	.	16G#y	.	.	16G#y	-ber-	-ker	.	.	.
4A	-maß	-ser	.	8F#y	.	.	8F#y	-maß	euch	4c#y	-den,	-ken,
.	.	.	.	8c#y	.	.	8c#y	auch	nicht	.	.	.
8r	.	.	.	8F#y	.	.	8f#y	gleich	bes-	8r	.	.
8C#y	das	nicht	.	8G#y	.	.	8e#	zu	-ser	8c#y	das	nicht
=15	=15	=15	=15	=15	=15	=15	=15	=15	=15	=15	=15	=15
(8.A	Ü-	bes-	.	(8.A	.	.	4f#y	Han-	dün-	(8.F#y	Ü-	bes-
16B)	-ber-	.	.	16G#y)	.	.	.	.	.	16G#y)	-ber-	.
4c#y	-maß	-ser	.	4F#y	.	.	4c#y	-den;	-ken,	4A	-maß;	-ser
4r	.	.	.	4r	.	.	4r	.	.	4r	.	.
=16	=16	=16	=16	=16	=16	=16	=16	=16	=16	=16	=16	=16
4D#y	.	.	f	4A	Ha-	wenn	4B	.	.	4f#y	Ha-	wenn
4D#y	.	.	.	4A	-fis!	man	4B	.	.	4B	-fis!	man
4E	.	.	.	4A	o	nicht	4B	.	.	4e	o	nicht
=17	=17	=17	=17	=17	=17	=17	=17	=17	=17	=17	=17	=17
8.F#y	.	.	.	8.A	leh-	lie-	8.B	.	.	8.e	leh-	lie-
16F#y	.	.	.	16A	-re	-ben	16B	.	.	16d#y	-re	-ben
4F#y	.	.	.	4A	mich	kann	4B	.	.	4d#y	mich	kann
4r	.	.	.	4r	.	.	4r	.	.	4r	.	.
=18	=18	=18	=18	=18	=18	=18	=18	=18	=18	=18	=18	=18
4D#y	.	.	.	4A	wie	soll	4B	.	.	4f#y	wie	soll
4D#y	.	.	.	4A	du's	man	4B	.	.	4B	du's	man
4C#y	.	.	.	4A	ver-	nicht	4B	.	.	4e	ver-	nicht
=19	=19	=19	=19	=19	=19	=19	=19	=19	=19	=19	=19	=19
4BB	.	.	.	4A	-stan-	trin-	4B	.	.	8.eL	-stan-	trin-
.	.	.	.	.	.	.	.	.	.	16d#yJ	.	.
4BB	.	.	.	4A	-den,	-ken,	4B	.	.	4d#y	-den,	-ken,
4r	.	.	.	4r	.	.	4r	.	.	4r	.	.
=20	=20	=20	=20	=20	=20	=20	=20	=20	=20	=20	=20	=20
!	!	!	!	!	!	!	!	!	!	!LO:TX:a:B:t=Solo	!	!
4E	.	.	p	4G#y	Ha-	wenn	4e	.	.	4e	Ha-	wenn
4E	.	.	.	4B	-fis!	man	4d#y	.	.	4e	-fis!	man
4E	.	.	.	4A	o	nicht	4c#y	.	.	4e	o	nicht
=21	=21	=21	=21	=21	=21	=21	=21	=21	=21	=21	=21	=21
4.E	.	.	.	4.G#y	leh-	lie-	4.B	.	.	4.e	leh-	lie-
8E	.	.	.	8A	-re	-ben	8A	.	.	16d#yL	-re	-ben
.	.	.	.	.	.	.	.	.	.	16c#yJ	.	.
4E	.	.	.	4B	mich	kann	4G#y	.	.	4B	mich	kann
=22	=22	=22	=22	=22	=22	=22	=22	=22	=22	=22	=22	=22
4C#y	.	.	.	4E	wie	soll	4A#	.	.	4A#	wie	soll
4C#y	.	.	.	4E	du's	man	4A#y	.	.	4c#y	du's	man
4C#y	.	.	.	4E	ver-	nicht	4A#y	.	.	4e	ver-	nicht
=23	=23	=23	=23	=23	=23	=23	=23	=23	=23	=23	=23	=23
2BB	.	.	.	2B	-stan-	trin-	2e	.	.	2g#y	-stan-	trin-
4BB	.	.	.	4A	-den,	-ken,	4d#y	.	.	4f#y	-den,	-ken,
=24	=24	=24	=24	=24	=24	=24	=24	=24	=24	=24	=24	=24
!	!	!	!	!	!	!	!	!	!	!LO:TX:a:B:t=Tutti	!	!
4E	.	.	f	4G#y	Ha-	wenn	4e	.	.	4e	Ha-	wenn
4E	.	.	.	4B	-fis!	man	4d#y	.	.	4e	-fis!	man
4E	.	.	.	4A	o	nicht	4c#y	.	.	4e	o	nicht
=25	=25	=25	=25	=25	=25	=25	=25	=25	=25	=25	=25	=25
4.E	.	.	.	4.G#y	leh-	lie-	4.B	.	.	4.e	leh-	lie-
8E	.	.	.	8A	-re	-ben	8A	.	.	16d#yL	-re	-ben
.	.	.	.	.	.	.	.	.	.	16c#yJ	.	.
4E	.	.	.	4B	mich	kann	4G#y	.	.	4B	mich	kann
=26	=26	=26	=26	=26	=26	=26	=26	=26	=26	=26	=26	=26
4C#y	.	.	.	4E	wie	soll	4A#	.	.	4A#	wie	soll
4C#y	.	.	.	4E	du's	man	4A#y	.	.	4c#y	du's	man
4C#y	.	.	.	4A#	ver-	nicht	4e	.	.	4e	ver-	nicht
=27	=27	=27	=27	=27	=27	=27	=27	=27	=27	=27	=27	=27
2BB	-stan-	trin-	.	2.B	-stan-	trin-	2e	-stan-	trin-	(2g#y	-stan-	trin-
4BB	-den,	-ken,	.	.	.	.	4d#y	-den,	-ken,	4f#y)	.	.
=28	=28	=28	=28	=28	=28	=28	=28	=28	=28	=28	=28	=28
!	!	!	!	!	!	!	!	!	!	!LO:TX:a:B:t=ritard.	!	!
4C#y	wie	soll	.	2E	-den,	-ken,	4e	wie	soll	[2.e	-den.	-ken,
4C#y	du's	man	.	.	.	.	4e	du's	man	.	.	.
4BB	ver-	nicht	.	4r	.	.	4d#y	ver-	nicht	.	.	.
=29	=29	=29	=29	=29	=29	=29	=29	=29	=29	=29	=29	=29
2.AA	-stan-	trin-	.	4A	wie	soll	(2c#y	-stan-	trin-	2.e_	.	.
.	.	.	.	4E	du's	man	.	.	.	.	.	.
.	.	.	.	4F#y	ver-	nicht	4A)	.	.	.	.	.
=30	=30	=30	=30	=30	=30	=30	=30	=30	=30	=30	=30	=30
2.EE;	-den.	-ken.	.	4G#y	-stan-	trin-	2.G#y;	-den.	-ken.	2.e;_	.	.
.	.	.	.	2B;	-den.	-ken.	.	.	.	.	.	.
==	==	==	==	==	==	==	==	==	==	==	==	==
*-	*-	*-	*-	*-	*-	*-	*-	*-	*-	*-	*-	*-
!!!system-decoration: [(s1)(s2)(s3)(s4)]
!!!URL: http://www3.cpdl.org/wiki/index.php/Trinklied,_Op._75,_No._3_(Felix_Mendelssohn)
!!!URL-pdf: http://www3.cpdl.org/wiki/images/6/69/Nh_Mendelssohn_Op75_3.pdf
!!!URL-musicxml: http://www3.cpdl.org/wiki/images/6/6b/Nh_Mendelssohn_Op75_3.mxl
!!!YEM: CPDL - Creative Commons Attribution Non Commercial 3.0
!!!SCA: CPDL #52575
!!!EED: Nikolaus Hold
!!!EEV: 2018/12/10
